icon/fa/house-medical-flag.svg

<svg xmlns="http://www.w3.org/2000/svg" viewBox="0 0 640 512"><!--! Font Awesome Free 6.1.2 by @fontawesome - https://fontawesome.com License - https://fontawesome.com/license/free (Icons: CC BY 4.0, Fonts: SIL OFL 1.1, Code: MIT License) Copyright 2022 Fonticons, Inc.--><path d="M480 0c17.7 0 32 14.33 32 32h112c8.8 0 16 7.16 16 16v128c0 8.8-7.2 16-16 16H512v320h-64V32c0-17.67 14.3-32 32-32zm-64 512H416.8 96c-17.67 0-32-14.3-32-32V288H31.1c-12.49 0-24.469-8.3-29.115-20.9-4.646-12.6-.98-26.7 9.185-35.4l224.03-192c12-10.27 29.6-10.27 41.6 0L416 159v353zM223.1 256h-48c-7.9 0-16 7.2-16 16v32c0 8.8 8.1 16 16 16h48v48c0 8.8 8.1 16 16 16h32c9.7 0 16-7.2 16-16v-48H336c8.8 0 16-7.2 16-16v-32c0-8.8-7.2-16-16-16h-48.9v-48c0-8.8-6.3-16-16-16h-32c-7.9 0-16 7.2-16 16v48z"/></svg>

<svg xmlns="http://www.w3.org/2000/svg" viewBox="0 0 640 512" height="1em" width="1em">
<!--! Font Awesome Free 6.1.2 by @fontawesome - https://fontawesome.com License - https://fontawesome.com/license/free (Icons: CC BY 4.0, Fonts: SIL OFL 1.1, Code: MIT License) Copyright 2022 Fonticons, Inc.-->
  <path d="M480 0C497.7 0 512 14.33 512 32H624C632.8 32 640 39.16 640 48V176C640 184.8 632.8 192 624 192H512V512H448V32C448 14.33 462.3 0 480 0V0zM416 512H416.1L416.8 512H96C78.33 512 64 497.7 64 480V288H31.1C18.61 288 6.631 279.7 1.985 267.1C-2.661 254.5 1.005 240.4 11.17 231.7L235.2 39.7C247.2 29.43 264.8 29.43 276.8 39.7L416 159V512zM223.1 256H175.1C167.2 256 159.1 263.2 159.1 272V304C159.1 312.8 167.2 320 175.1 320H223.1V368C223.1 376.8 231.2 384 239.1 384H271.1C280.8 384 287.1 376.8 287.1 368V320H336C344.8 320 352 312.8 352 304V272C352 263.2 344.8 256 336 256H287.1V208C287.1 199.2 280.8 192 271.1 192H239.1C231.2 192 223.1 199.2 223.1 208V256z"/>
</svg>
